!!!COM: Scriabin, Alexander
!!!OTL: Prelude
!!!OPR: 24 Preludes
!!!OPS: 11
!!!ONM: 10
!!!ODT: 1894
!!!AGN: Prelude
**kern	**kern
*staff2	*staff1
*clefF4	*clefG2
*k[f#c#g#d#]	*k[f#c#g#d#]
*c#:	*c#:
*M6/8	*M6/8
=1	=1
*	*^
8CC#L	8raa	4.rc
8A 8g#	8cc#L 8gg#	.
8EJ 8c#	8g#J 8ee	.
8AL 8f##X	8cc#L 8ff##X	4rc
8D#J 8c#	8f##XJ 8dd#	.
8r	8raa	8d#
=2	=2	=2
*^	*	*
4.rc	8CC#L	8raa	4.e
.	8E 8c#	8g#L 8ee	.
.	8G#J 8g#	8eJ 8cc#	.
4.c#	8F##XL	8a#XL	4.e
.	8G#	8g#	.
.	8AA#XJ	8a#J	.
*v	*v	*	*
*	*v	*v
=3	=3
8DD#L	8r
8BB 8G#	8d#L 8b
8D#J 8d#	8BJ 8g#
8DD#L	8r
8C# 8F##X	8c#L 8an
8EJ 8c#	8AJ 8e
=4	=4
*^	*^
8GGG# 8GG#	8rEE	8raa	4.rc
8D#L	[4GG#	8B#XL 8g#	.
8EJ	.	8AJ 8c#	.
8G#L	4.GG#]	8c#L 8g#	8rc
8D#	.	8B#	4d#
8G#J	.	8b#XJ	.
=5	=5	=5	=5
8A	8FF#	8c# 8f# 8cc#	4.rc
*clefG2	*	*	*
8dnL 8cc#	8rc	8ff#L 8ccc#	.
8AJ 8f#	8rc	8cc#J 8aa	.
8dL 8b#X	4.rc	8ff#L 8bb#X	4rc
8G#J 8f#	.	8b#XJ 8gg#	.
8raa	.	8raa	8g#
*clefF4	*	*	*
=6	=6	=6	=6
4.rc	8FF#L	8raa	4.a
.	8A 8f#	8cc#L 8aa	.
.	8c#J 8cc#	8aJ 8ff#	.
4.f#	8B#XL	8dd#XL	4.a
.	8c#	8cc#	.
.	8D#J	8dd#J	.
*v	*v	*	*
*	*v	*v
=7	=7
8GG#L	8r
8E 8c#	8g#L 8ee
8G#J 8g#	8eJ 8cc#
8GG#L	8r
8F# 8B#X	8f#L 8ddn
8AJ 8f#	8dnJ 8a
=8	=8
*^	*
8CC# 8C#	8rEE	8r
8G#L	[4C#	8eL 8cc#
8AJ	.	8d#XJ 8f#
8c#L	4C#]	8f#L 8cc#
8G#J	.	8e 8g#
8rc	8rEE	8eeJ
*v	*v	*
=9	=9
8EEL 8E	8r
8BB 8B	8bL 8gg#
8G#J 8d#	8g#J 8dd#
8EL 8c#	8g#L 8ee
8G# 8g#	8e 8cc#
8BJ 8g#	8eJ 8b
=10	=10
*	*^
8BBBL 8BB	8raa	4.rc
8BB 8B	8AL 8d# 8f#	.
8BBJ 8B	8AJ 8d# 8f##X	.
4.BB 4.B	4.G# 4.g#	4d#
.	.	8e
*	*v	*v
=11	=11
8EEL 8E	8r
8BB 8B	8bL 8gg#
8G#J 8d#	8g#J 8dd#
8EL 8c#	8g#L 8ee
8G# 8g#	8e 8cc#
8BJ 8g#	8eJ 8b
=12	=12
8BBBL 8BB	8r
8BB 8B	8AL 8d# 8f#
8BBJ 8B	8AJ 8d# 8f##X
8BBL 8B	4.G# 4.dn 4.f#X 4.g#
8BB#X 8B#X	.
8GG#J 8G#	.
=13	=13
*	*^
8CCC#L 8CC#	8raa	8rc
8A 8c# 8a	8gg#L	4g# 4cc#
8EJ 8e	8eeJ	.
8AL 8c# 8a	8ff##XL	4f##X 4cc#
8D#XJ 8d#X	8dd#XJ	.
8r	8raa	8d#
=14	=14	=14
*^	*	*
8CCC#L 8CC#	4.rEE	8raa	4.e
8E 8c#	.	8g#L 8ee	.
8G#J 8g#	.	8eJ 8cc#	.
4.c#	8F##XL	8a#XL	4.e
.	8G#J	8g#	.
.	8rEE	8c#J	.
*v	*v	*	*
=15	=15	=15
8CCC#L 8CC#	8raa	8rc
8Dn 8F#X 8dn	8cc#L	4c# 4f#
8AAJ 8A	8aJ	.
8CCC#L 8CC#	8raa	8rc
8D 8F# 8d	8b#XL	4B#X 4f#
8GG#J 8G#	8g#J	.
=16	=16	=16
*^	*	*
8CCC#L 8CC#	4.rEE	8raa	4.rc
8AA 8F#	.	8c#L 8a	.
8C#J 8c#	.	8AJ 8f#	.
4.F#	8BB#XL	8d#XL	4.A
.	8C#	8c#	.
.	8C#J	8c#J	.
=17	=17	=17	=17
4.C#	8FF#	4.c#	8F# 8A
.	8rEE	.	8rc
.	8rEE	.	8rc
[4.C#	8EE	[4.c#	8E 8A 8e
.	8rEE	.	8rc
.	8rEE	.	8rc
=18	=18	=18	=18
4.C#]	4.rEE	4.c#]	4.rc
[4.C#	8DD#	[4.c#	8A 8f#
.	8rEE	.	8rc
.	8rEE	.	8rc
*	*	*v	*v
=19	=19	=19
2.C#_	8CCC#L	2.c#_
.	8CC#	.
.	8GG#J	.
.	8EL	.
.	8G#	.
.	8c#J	.
=20	=20	=20
4.C#]	4.g#	4.c#]
4rc	4rEE	4r
8rc	8rEE	8r
*v	*v	*
==	==
*-	*-
!!!system-decoration: {(s1,s2)}
